!!!OTL: Am Abend.
!!!OTL-incipit:WILL NUN SCHLAFEN GEHEN
!!!COM: J. Beer
!!!ARE: Europa, Mitteleuropa, Deutschland
!!!SCT: F0361
!!!TXL: @@DE
!!!YEM: Copyright 1995, estate of Helmut Schaffrath.
**kern	**text
*ICvox	*
*clefG2	*
*M6/8	*
*k[f#c#g#d#]	*
*E:	*
=1	=1
!LO:TX:a:t=Ruhig.	!
!LO:TX:a:t=P:only the highest voice encoded:problem	!
{4g#	1._Will
8g#	nun
8.f#L	ſchla-
16g#J	.
8f#	-fen
=2	=2
4.e	ge-
4.g#}	-hen,
=3	=3
{4f#	lie-
8f#	-bes
4b/	Bett-
8a	-chen
=4	=4
4g#	mein;
8r	.
4r	.
8r}	.
=5	=5
{4a	kann
8a	ja
8.cc#/L	nichts
16bJ	.
8a	mehr
=6	=6
4.b/	ſe-
4g#}	-hen
{8g#	mit
=7	=7
8.f#L	mei-
16g#J	.
8a	-nen
4d#	Aeu-
8f#	-ge-
=8	=8
4e	-lein.
8r	.
4r	.
8r}	.
==	==
!!!AGN: Jugend - Lied, Tageszeiten, Abend, religioes
!!!ONB: ESAC (Essen Associative Code) Database: FINK
!!!AMT: compound duple
!!!AIN: vox
!!!EED: Helmut Schaffrath
!!!EEV: 1.0
!!!GTL: Jugendlieder
!!Text: Hey
!!!source: Musikalischer Hausschatz der Deutschen. Eine Sammlung von über 1000 Liedern und Gesängen mit Singstimmen und Klavierbegleitung. Leipzig, Litterarisches Verlags-Haus.
!!!page: 213
!!!URL-scan: https://www.digitale-sammlungen.de/en/view/bsb11144622?page=210,211
!!!ENC: Anna Maria Matuszewska
!!!EEV: 2024/30/07
*-	*-
